!!!COM: Palestrina, Giovanni Perluigi da
!!!OPR: Missa Sine nomine (1599)
!!!OMD: Benedictus
!!!OTL: First Section
**kern	**kern	**kern	**kern
*Ibass	*Itenor	*Icalto	*Icant
!Bassus	!Tenor	!Altus	!Cantus
*clefF4	*clefGv2	*clefG2	*clefG2
*k[]	*k[]	*k[]	*k[]
*A:aeo	*A:aeo	*A:aeo	*A:aeo
*M4/2	*M4/2	*M4/2	*M4/2
=1	=1	=1	=1
0A	0r	0r	0r
=2	=2	=2	=2
1B	0r	0r	0r
1c	.	.	.
=3	=3	=3	=3
1.d	0r	0r	0a
2c	.	.	.
=4	=4	=4	=4
2.B	0r	0r	1b
8A	.	.	.
8G	.	.	.
1A	.	.	1cc
=5	=5	=5	=5
1G	0r	0d	1.dd
1r	.	.	.
.	.	.	2cc
=6	=6	=6	=6
1r	0r	1e	2b
.	.	.	4a
.	.	.	4g
1D	.	1f	1a
=7	=7	=7	=7
4E	0r	1.g	4g
4F	.	.	4a
4G	.	.	4b
4A	.	.	4cc
4B	.	.	4dd
4c	.	.	4ee
2d	.	2f	[2dd
=8	=8	=8	=8
1A	0r	2.e	2dd]
.	.	.	1cc
.	.	8d	.
.	.	8c	.
2F	.	1d	.
2G	.	.	2b
=9	=9	=9	=9
2.A	0r	4c	0cc
.	.	4d	.
.	.	4e	.
8G	.	4f	.
8F	.	.	.
2E	.	4g	.
.	.	4e	.
2F	.	[2a	.
=10	=10	=10	=10
1G	0d	4a]	1b
.	.	4g	.
.	.	1g	.
1D	.	.	1a
.	.	2f#	.
=11	=11	=11	=11
0r	1e	2.g	2r
.	.	.	2g
.	.	8f	.
.	.	8e	.
.	1f	1d	2a
.	.	.	2a
=12	=12	=12	=12
2r	1.g	1r	4b
.	.	.	4cc
2G	.	.	4dd
.	.	.	4b
2A	.	2r	2cc
2B	2f	2d	[2dd
=13	=13	=13	=13
2c	2e	2e	4dd]
.	.	.	4cc
2A	4d	2f	1cc
.	4c	.	.
1G	1d	2.g	.
.	.	.	2b
.	.	4f	.
=14	=14	=14	=14
2.A	4c	2e	4a
.	4d	.	4b
.	4e	2a	4cc
8G	4f	.	4dd
8F	.	.	.
2.E	4g	1b	4ee
.	4a	.	4ff
.	[2g	.	[2ee
4D	.	.	.
=15	=15	=15	=15
2C	2g]	4cc	2ee]
.	.	4b	.
2D	2f	4a	1dd
.	.	4g	.
1A	1e	[1a	.
.	.	.	2cc#
=16	=16	=16	=16
0D	0d	1a]	2dd
.	.	.	2dd
.	.	2r	2.ff
.	.	2a	.
.	.	.	4ff
=17	=17	=17	=17
0r	0r	2.cc	2ee
.	.	.	2.gg
.	.	4cc	.
.	.	2b	.
.	.	.	4ff
.	.	[2cc	4ee
.	.	.	4dd
=18	=18	=18	=18
0r	1r	4cc]	4ee
.	.	4b	4dd
.	.	4a	4cc
.	.	4g	4b
.	2r	4a	2cc
.	.	4g	.
.	2d	4f	[2dd
.	.	4e	.
=19	=19	=19	=19
0r	2.f	2d	4dd]
.	.	.	4cc
.	.	1a	4cc
.	4f	.	8b
.	.	.	8a
.	2e	.	2b
.	[2e	2g#	2b
=20	=20	=20	=20
1A	4e]	1a	1a
.	4d	.	.
.	4c	.	.
.	4B	.	.
2.c	4A	2r	1r
.	4B	.	.
.	2c	2e	.
4c	.	.	.
=21	=21	=21	=21
2B	2d	2.g	0r
2.c	2e	.	.
.	.	4g	.
.	2.A	2a	.
4B	.	.	.
4A	.	[2cc	.
4G	4B	.	.
=22	=22	=22	=22
4A	2c	4cc]	0r
4G	.	4b	.
4F	2.d	4a	.
4E	.	4g	.
2D	.	2a	.
.	4c	.	.
[2d	2d	2f	.
=23	=23	=23	=23
2d]	1A	1e	2r
2c#	.	.	2ee
1d	2r	1a	2.ff
.	2d	.	.
.	.	.	4ff
=24	=24	=24	=24
0r	2.a	2.cc	2ee
.	.	.	2.ff
.	4a	4cc	.
.	2f	2a	.
.	.	.	4ee
.	[2g	[2b-	4dd
.	.	.	4cc
=25	=25	=25	=25
0r	4g]	4b-]	2dd
.	4f	4a	.
.	4e	4g	2.ee
.	4d	4f	.
.	2e	2g	.
.	.	.	4dd
.	[2f	[2a	4cc
.	.	.	4b
=26	=26	=26	=26
2r	4f]	4a]	2cc
.	4e	4g	.
2D	4d	1f	2.b
.	4c	.	.
2.F	4d	.	.
.	4c	.	4a
.	4B	2d	[2a
4F	4A	.	.
=27	=27	=27	=27
1E	1B	1e	2a]
.	.	.	2g#
2.A	1c#	2r	[1a
.	.	2e	.
4G	.	.	.
=28	=28	=28	=28
4F	1d	2.f	1a]
4E	.	.	.
1D	.	.	.
.	.	4f	.
.	1A	1e	2r
2C#	.	.	2ee
=29	=29	=29	=29
1D	2r	1.a	2.ff
.	2d	.	.
.	.	.	4ff
1A	2.c#	.	2ee
.	.	2a	[2ff
.	4c#	.	.
=30	=30	=30	=30
1.D	2d	[0a	4ff]
.	.	.	4ee
.	1f	.	4dd
.	.	.	4cc#
.	.	.	2dd
2D	2f	.	2dd
=31	=31	=31	=31
0A	0e	0a]	0cc#
*-	*-	*-	*-
!!!CDT: 1525/^1526/-1594/2/2
!!!OCY: Italia
!!!AGN: Mass (Canonic)
!!!AST: renaissance, vocal
!!!ASW: Antiphon
!!!PWK: Masses, Book 9
!!!RNB: Cadence finals: D
!!!YOR: Le Opere Complete, v. 25, p. 93
!!!YOO: Rome, Italy: Fratelli Scalera
!!!END: 1992//
!!!EED: John Miller
!!!YEC: Copyright 2000, John Miller
!!!YEN: United States of America
!!!YEM: Rights to all derivative electronic formats reserved.
!!!YEM: Refer to licensing agreement for further details.
!!!YEM: This file must be accompanied by the licensing agreement.
!!!YEM: A copy of the licensing agreement may be found at http://www.music-cog.ohio-state.edu/HumdrumDatabases/Palestrina/license.txt
!!!EMD: converted to Humdrum by Bret Aarden
